solar-power-variant.svg

<svg fill="currentColor" viewBox="0 0 24 24"><path d="M3.33 16H11v-3H4zM13 16h7.67L20 13h-7zm8.11 2H13v4h9zM2 22h9v-4H2.89zm9-14h2v3h-2zm4.76-.79 1.42-1.42 2.12 2.12-1.41 1.42zm-11.05.7 2.12-2.12 1.41 1.42-2.12 2.12zM3 2h3v2H3zm15 0h3v2h-3zm-6 5c2.76 0 5-2.24 5-5H7c0 2.76 2.24 5 5 5"/></svg>

<svg  viewBox="0 0 24 24" fill="currentColor"><path  d="M3.33 16H11V13H4L3.33 16M13 16H20.67L20 13H13V16M21.11 18H13V22H22L21.11 18M2 22H11V18H2.89L2 22M11 8H13V11H11V8M15.76 7.21L17.18 5.79L19.3 7.91L17.89 9.33L15.76 7.21M4.71 7.91L6.83 5.79L8.24 7.21L6.12 9.33L4.71 7.91M3 2H6V4H3V2M18 2H21V4H18V2M12 7C14.76 7 17 4.76 17 2H7C7 4.76 9.24 7 12 7Z"/></svg>
